X:495
T: Nachtigall, wo ist gut wohnen (5-91), S. 143
N: P0765
O: Lothringen
S: MERKELBACH-PINCK, Angelika: Verklingende Weisen, Bd 5, Kassel 1962]
R: ???, Liebe]
M: 3/4
L: 1/8
K: G
D2D2 | G3AB2c2B2A2 | A2G2z4
G2A2 | B3cd2e2d2B2 | c2B2z4
d2dc | B3c2d | c2e2A2 | z2
F2G2 | A3Bc2 | B2d2G2 | B2A2z4
c2e2 | d4B4c2A2 | G4z4

@@@ Tune index: 8045
